X:1
T:Rat in the Kitchen, The
Z:Pierre Commes <pierre.commes:LIBERTYSURF.FR> irtrad-l 2000-12-15
M:2/2
L:1/8
R:Reel
%Q:1/4=120
K:G
~G3 A ~B3 c |d^c de dB GB |~A3 B cB cd |~e3 f ed cA
|~G3 A ~B3 c |d^c de dB GB |AB cd ef ge |1 dB cA BG FA :|2 dB cA BG G2 ||
|:~e3 f ~g3 a |b ~e3 be ge |d^c de ~f3 g |af df af df
|~e3 f ~g3 a |b ~e3 be ge |dB GA ~B3 c |1d^c de dc df :|2 d^c dB A ~F3 ||
% Variations
 ~G2 dG Bd GB |dG eG d~B3 |AE ~E2 c~A3 |~e3 f ed cA
|~G2 dG Bd GB |d^c de dB GB |AB cd ef ge |1 dB cA BG FA :|2 dB cA BG G2 | |
|:~e3 f ~g3 a |b ~e3 Be Ge |d^c de ~f3 g |af df af df
|~e3 f ~g3 a |b ~e3 be ge |dB GA ~B3 c |1d^c de dc df :|2 d^c dB A ~F3 ||
